Obsidian-SemiLight/actions/22s/text_rotation.svg

<svg viewBox="0 0 22 22" xmlns="http://www.w3.org/2000/svg"><path d="m14.666016 6.8945312-1.332032 3.7714848-1.333984 3.771484.943359.333984.453125-1.283203a4 4 0 0 0 2.375 2.283203 4 4 0 0 0 5.103516-2.4375 4 4 0 0 0 -2.4375-5.1054684 4 4 0 0 0 -3.28125.2832032l.453125-1.2832032zm-9.666016.5527344a4 4 0 0 0 -4 4.0000004 4 4 0 0 0 4 4 4 4 0 0 0 3-1.361328v1.361328h1v-4-4.0000004h-1v1.3613282a4 4 0 0 0 -3-1.3613282zm0 1a3 3 0 0 1 3 3.0000004 3 3 0 0 1 -3 3 3 3 0 0 1 -3-3 3 3 0 0 1 3-3.0000004zm12.011719.5546875a3 3 0 0 1 1.09375.1699219 3 3 0 0 1 1.828125 3.828125 3 3 0 0 1 -3.828125 1.828125 3 3 0 0 1 -1.830078-3.828125 3 3 0 0 1 2.736328-1.9980469z" fill="#4d4d4d"/><path d="m10 3v16h1v-2.419922l9.359375 2.105469.232422-1.027344-9.591797-2.158203v-12.5z" fill="#3daee9"/></svg>

<svg xmlns="http://www.w3.org/2000/svg" viewBox="0 0 22 22">
  <defs id="defs3051">
    <style type="text/css" id="current-color-scheme">
      .ColorScheme-Text {
        color:#4d4d4d;
      }
      .ColorScheme-Highlight {
        color:#3daee9;
      }
      </style>
  </defs>
 <path 
     style="fill:currentColor;fill-opacity:1;stroke:none" 
	d="M 14.666016 6.8945312 L 13.333984 10.666016 L 12 14.4375 L 12.943359 14.771484 L 13.396484 13.488281 A 4 4 0 0 0 15.771484 15.771484 A 4 4 0 0 0 20.875 13.333984 A 4 4 0 0 0 18.4375 8.2285156 A 4 4 0 0 0 15.15625 8.5117188 L 15.609375 7.2285156 L 14.666016 6.8945312 z M 5 7.4472656 A 4 4 0 0 0 1 11.447266 A 4 4 0 0 0 5 15.447266 A 4 4 0 0 0 8 14.085938 L 8 15.447266 L 9 15.447266 L 9 11.447266 L 9 7.4472656 L 8 7.4472656 L 8 8.8085938 A 4 4 0 0 0 5 7.4472656 z M 5 8.4472656 A 3 3 0 0 1 8 11.447266 A 3 3 0 0 1 5 14.447266 A 3 3 0 0 1 2 11.447266 A 3 3 0 0 1 5 8.4472656 z M 17.011719 9.0019531 A 3 3 0 0 1 18.105469 9.171875 A 3 3 0 0 1 19.933594 13 A 3 3 0 0 1 16.105469 14.828125 A 3 3 0 0 1 14.275391 11 A 3 3 0 0 1 17.011719 9.0019531 z "
       class="ColorScheme-Text"
     />
 <path 
     style="fill:currentColor;fill-opacity:1;stroke:none" 
	d="M 10 3 L 10 19 L 11 19 L 11 16.580078 L 20.359375 18.685547 L 20.591797 17.658203 L 11 15.5 L 11 3 L 10 3 z "
       class="ColorScheme-Highlight"
     />
</svg>
